X:1
T:[ID 2-66]
T:[ID 2-66]
T:Bezeichnung standardisiert: Menuet [mit Trio] Menuet [mit Trio] Primo
T:Urheber unbekannt Erstbeleg: 1767 (Datum in der schriftlichen Quelle) Datum in der hier transkribierten schriftlichen Quelle: 1773
C:Urheber unbekannt
C:Erstbeleg: 1767 (Datum in der schriftlichen Quelle)
C:Datum in der hier transkribierten schriftlichen Quelle: 1773
%%score ( 1 2 ) 3
L:1/8
M:3/4
K:G
V:1 treble 
V:2 treble 
V:3 treble 
V:1
 G4 BG | dBgdBG | D4 FD | AFcAFD | G4 BG | dBgdBd | .c2 (.c2 B2) x6 ::{B} A6 | d4 gd | %9
 (bd)(dc)(cB) | c4 fd | (ac)(cB)(BA) | B3 def | g3 ded | c2 B2 TA2 :| G6 | %16
[M:3/4]"^Trio" !fermata!d4 (3edc | B4 (3cBA | G4 (3AGF | G4 z2 | AB c2 B2 | B2 A2 z2 x6 :: %22
 Bc d2 c2 x12 | c2 B2 z2 | e4 (3_fed | e2 z2 z2 | d4 (3edc | d2 z2 z2 | c2 z2 (3BAB | %29
 A2 z2 z2 x6 :| FAAccB | BA A2 z2 | d4 (3efg | d2 z2 (3cBc | B2 z2 (3AGA | x6"^1)" :| %36
V:2
 x6 | x6 | x6 | x6 | x6 | x6 | x12 :: x6 | x6 | x6 | x6 | x6 | x6 | x6 | x6 :| x6 |[M:3/4] x6 | %17
 x6 | x6 | x6 | x6 | x12 :: x18 | x6 | x6 | x6 | x6 | x6 | A2 x4 | x12 :| x6 | x6 | x6 | x6 | x6 | %35
 x6 :| %36
V:3
 G4 BG | dBgdBG | D4 FD | AFcAFD | G4 BG | dBgdBd | c2 c2 x2 x6 :: x6 | (dB)(BA)(AG) | A4 cA | %10
 (cA)(AG)(GF) | G3 Bcd | B3 BcB | A2 G2 TF2 | x6 :|[M:3/4] B4 (3AGA | G2 z2 (3CB,C | %17
 B,2 z2 (3CB,C | B,2 z2 z2 | FG A2 G2 | G2 F2 z2 | GA x4 x6 :: x6 x6 B4 (3cBA | B2 z2 z2 | %24
 A2 z2 (3GFG | G2 z2 z2 | DFFAAG | F6 | B4 (3cde | B2 z2 x2 x6 :| x6 | x6 | x6 | x6 | x6 | x6 :| %36

